elusive/calendar.svg

<?xml version="1.0" encoding="UTF-8" standalone="no"?>
<!-- Generator: IcoMoon.io -->

<svg
   xmlns:dc="http://purl.org/dc/elements/1.1/"
   xmlns:cc="http://creativecommons.org/ns#"
   xmlns:rdf="http://www.w3.org/1999/02/22-rdf-syntax-ns#"
   xmlns:svg="http://www.w3.org/2000/svg"
   xmlns="http://www.w3.org/2000/svg"
   xmlns:sodipodi="http://sodipodi.sourceforge.net/DTD/sodipodi-0.dtd"
   xmlns:inkscape="http://www.inkscape.org/namespaces/inkscape"
   id="svg2"
   data-tags="remove-circle, cancel, close, remove, delete"
   height="1200"
   viewBox="0 0 1200 1200"
   width="1200"
   version="1.1"
   data-du=""
   inkscape:version="0.48.4 r9939"
   sodipodi:docname="calendar.svg">
  <defs
     id="defs3077" />
  <sodipodi:namedview
     pagecolor="#ffffff"
     bordercolor="#666666"
     borderopacity="1"
     objecttolerance="10"
     gridtolerance="10"
     guidetolerance="10"
     inkscape:pageopacity="0"
     inkscape:pageshadow="2"
     inkscape:window-width="1535"
     inkscape:window-height="876"
     id="namedview3075"
     showgrid="false"
     inkscape:zoom="0.37249375"
     inkscape:cx="1061.7134"
     inkscape:cy="501.05564"
     inkscape:window-x="65"
     inkscape:window-y="24"
     inkscape:window-maximized="1"
     inkscape:current-layer="svg2" />
  <metadata
     id="metadata62">
    <rdf:RDF>
      <cc:Work
         rdf:about="">
        <dc:format>image/svg+xml</dc:format>
        <dc:type
           rdf:resource="http://purl.org/dc/dcmitype/StillImage" />
        <dc:title />
      </cc:Work>
    </rdf:RDF>
  </metadata>
  <path
     d="m 266.02545,0 0,188.01865 98.7407,0 0,-188.01865 -98.7407,0 z m 569.2084,0 0,188.01865 98.5921,0 0,-188.01865 -98.5921,0 z m -771.0003,90.36786 0,263.22611 1071.53295,0 0,-263.22611 -131.3405,0 0,168.15159 -239.79195,0 0,-168.15159 -329.4167,0 0,168.15159 -239.6433,0 0,-168.15159 -131.3405,0 z m 0,332.33968 0,777.29246 1071.53295,0 0,-777.29246 -1071.53295,0 z m 420.924,179.59621 c 54.5436,0.53686 106.1616,26.74281 126.6835,75.50472 9.6514,29.12849 14.7899,60.17898 2.7744,87.29614 -15.0419,31.28332 -45.5376,47.56901 -75.4552,58.06531 56.149,14.65084 93.1014,49.95987 93.4396,107.31191 -0.9055,39.33824 -19.3163,74.18297 -47.1161,96.95707 -29.5592,23.3684 -65.2998,36.4226 -100.3262,36.6624 -98.7756,0 -148.1854,-44.5347 -148.1854,-133.61947 l 87.197,0 c 1.8526,37.50536 19.5872,66.03147 56.0836,66.53717 46.3965,-3.1617 64.7668,-33.6466 65.15,-72.6806 -0.022,-23.57713 -8.6285,-47.73928 -29.1317,-56.82679 -26.4493,-10.9908 -55.976,-9.68458 -81.7473,-9.71058 l 0,-67.82544 c 42.1268,0.87825 99.9963,-6.55315 100.4253,-56.77717 -1.6378,-36.94129 -16.7576,-63.29803 -52.6156,-63.76285 -38.1971,2.30325 -59.1573,24.01641 -59.5515,58.31303 l -85.8098,0 c 1.8627,-86.47259 72.8977,-125.05805 148.1854,-125.44485 z m 300.9784,8.3729 76.8424,0 0,445.20045 -83.1344,0 0,-358.0034 c -31.8499,27.23343 -67.1029,46.62533 -105.8752,58.1644 l 0,-76.14879 c 45.2342,-17.54044 82.6256,-40.5938 112.1672,-69.21266 z"
     id="path3053"
     inkscape:connector-curvature="0" />
</svg>

<?xml version="1.0" encoding="utf-8"?>
<!-- Generator: Adobe Illustrator 16.0.0, SVG Export Plug-In . SVG Version: 6.00 Build 0)  -->
<!DOCTYPE svg PUBLIC "-//W3C//DTD SVG 1.1//EN" "http://www.w3.org/Graphics/SVG/1.1/DTD/svg11.dtd">
<svg version="1.1"
	 id="svg2" xmlns:dc="http://purl.org/dc/elements/1.1/" xmlns:cc="http://creativecommons.org/ns#" xmlns:rdf="http://www.w3.org/1999/02/22-rdf-syntax-ns#" xmlns:svg="http://www.w3.org/2000/svg" xmlns:sodipodi="http://sodipodi.sourceforge.net/DTD/sodipodi-0.dtd" xmlns:inkscape="http://www.inkscape.org/namespaces/inkscape" sodipodi:docname="calendar.svg" inkscape:version="0.48.4 r9939"
	 xmlns="http://www.w3.org/2000/svg" xmlns:xlink="http://www.w3.org/1999/xlink" x="0px" y="0px" width="1200px" height="1200px"
	 viewBox="0 0 1200 1200" enable-background="new 0 0 1200 1200" xml:space="preserve">
<sodipodi:namedview  inkscape:cy="501.05564" inkscape:cx="1061.7134" inkscape:zoom="0.37249375" showgrid="false" id="namedview3075" guidetolerance="10" gridtolerance="10" objecttolerance="10" borderopacity="1" bordercolor="#666666" pagecolor="#ffffff" inkscape:current-layer="svg2" inkscape:window-maximized="1" inkscape:window-y="24" inkscape:window-height="876" inkscape:window-width="1535" inkscape:pageshadow="2" inkscape:pageopacity="0" inkscape:window-x="65">
	</sodipodi:namedview>
<path id="path3053" inkscape:connector-curvature="0" d="M266.025,0v188.019h98.741V0H266.025z M835.233,0v188.019h98.593V0H835.233
	z M64.233,90.368v263.226h1071.533V90.368h-131.341V258.52H764.634V90.368H435.218V258.52H195.574V90.368H64.233L64.233,90.368z
	 M64.233,422.708V1200h1071.533V422.707L64.233,422.708L64.233,422.708z M485.157,602.304
	c54.544,0.537,106.162,26.743,126.684,75.505c9.651,29.128,14.79,60.179,2.774,87.296c-15.042,31.283-45.537,47.569-75.455,58.065
	c56.149,14.65,93.102,49.96,93.439,107.312c-0.905,39.339-19.316,74.184-47.116,96.957c-29.559,23.369-65.3,36.423-100.326,36.663
	c-98.775,0-148.185-44.535-148.185-133.62h87.197c1.853,37.506,19.587,66.032,56.084,66.537
	c46.396-3.161,64.767-33.646,65.149-72.681c-0.021-23.577-8.628-47.739-29.131-56.826c-26.45-10.991-55.977-9.685-81.748-9.711
	v-67.825c42.127,0.878,99.996-6.554,100.426-56.777c-1.638-36.941-16.758-63.298-52.616-63.763
	c-38.196,2.303-59.157,24.017-59.551,58.312h-85.81C338.835,641.275,409.87,602.69,485.157,602.304L485.157,602.304z
	 M786.136,610.677h76.843v445.2h-83.135V697.874c-31.85,27.233-67.103,46.625-105.875,58.164V679.89
	C719.203,662.349,756.595,639.296,786.136,610.677L786.136,610.677z"/>
</svg>
